X:1
T:Title
%%score { 1 | 2 }
L:1/8
M:6/8
K:Bb
V:1 treble nm="Grand Piano"
V:2 bass 
V:1
 z3 z2[Q:1/4=84] [DF] | [DF][DF][DF] [DF][DF][DF] | [DF][DB][DB] [EA]2 [EF] | %3
 [EF][EF][EF] [EF][EF][EF] | [EF][Ec][Ec] [DB]2 [DF] | [DF][DF][DF] [Fd][Ec][DB] | %6
 [FB][FA][FB] G2 G | FFF F[FB][Gc] |[M:5/8] [Fd]2 [Ec] [DB]2 |[M:1/8] [DB] |[M:3/4] BA AA Bc | %11
 [Ec][DB] [DB][DB] [Ec][Fd] | [Ge][Ge] [Ge][Ge] [Fd][Fd] | [=Ed][Ec] [Ec] c2 F | %14
 [Fd][Fd] [Fd][Fd] [Ec][DB] | BB B[GB] [FA]G | FF FF [FB][Gc] |[M:5/8] [Fd]2 [Ec] [DB]2 |] %18
V:2
 z3 z2 [B,,B,] | [B,,B,][B,,B,][B,,B,] [B,,B,][B,,B,][B,,B,] | %2
 [B,,B,][B,,F,][B,,F,] [C,F,]2 [C,A,] | [C,A,][C,A,][C,A,] [C,A,][C,A,][C,A,] | %4
 [C,A,][F,A,][F,A,] [B,,B,]2 [B,,B,] | [B,,B,][B,,B,][B,,B,] [B,,B,][B,,F,][B,,F,] | %6
 [D,B,][D,B,][D,B,] [E,B,E]2 [E,B,E] | [F,B,D][F,B,D][F,B,D] [F,B,D][D,B,][E,B,] | %8
[M:5/8] [F,B,]2 [F,A,] [B,,F,]2 |[M:1/8] [B,,G,] |[M:3/4] [F,D][F,C] [F,C][F,C] [F,D][F,E] | %11
 [B,,F,][B,,F,] [B,,F,][B,,F,] [B,,F,][B,,B,] | [E,B,][E,B,] [E,B,][B,,B,] [B,,B,][B,,B,] | %13
 [C,B,][C,B,] [C,B,] [F,A,F]2 [F,A,] | [B,,B,][B,,B,] [B,,B,][B,,B,] [B,,F,][B,,F,] | %15
 [E,G,E][E,G,E] [E,G,E][E,B,] [E,B,][E,B,E] | [F,B,D][F,B,D] [F,B,D][F,B,D] [D,B,][E,B,] | %17
[M:5/8] [F,A,]2 [F,A,] [B,,F,]2 |] %18

